icon-svg/motion-sensor-luminance-off.svg

<svg xmlns="http://www.w3.org/2000/svg" viewBox="0 0 24 24"><path fill="#44739e" d="M12.762 10.196V4.639c0-.911-.739-1.66-1.642-1.66H5.545ZM7.846 3.664c.297 0 .55.253.55.56a.547.547 0 1 1-1.092 0c0-.307.244-.56.542-.56m7.578 11.692v1.822l-.018 2.174c-1.805-.225-3.212-1.75-3.212-3.608 0-1.002.415-1.895 1.073-2.553l-1.732-1.732a.444.444 0 0 0 .009.631l.803.803a4.55 4.55 0 0 0-1.001 2.445h-1.155a.447.447 0 0 0-.451.451c0 .252.199.451.451.451h1.155c.099.911.46 1.741 1.028 2.418l-.83.83c-.18.18-.18.46 0 .64.091.09.208.135.316.135s.235-.045.316-.135l.839-.839a4.55 4.55 0 0 0 2.409.983v1.209c0 .253.198.451.451.451a.447.447 0 0 0 .451-.451v-1.209a4.5 4.5 0 0 0 2.39-.992l.857.857c.091.09.208.135.316.135s.235-.045.316-.135Zm6.125-.027h-1.182a4.44 4.44 0 0 0-.983-2.427l.821-.821c.18-.18.18-.46 0-.64a.446.446 0 0 0-.641 0l-.812.812a4.5 4.5 0 0 0-2.435-1.029v-1.118a.45.45 0 0 0-.451-.452.447.447 0 0 0-.451.452v1.127a4.3 4.3 0 0 0-1.291.325l.704.704q.284-.084.596-.127v.722l4.618 4.619c.163-.388.271-.794.316-1.227h1.191a.446.446 0 0 0 .451-.451.46.46 0 0 0-.451-.469m-.379 4.664L3.245 2.068 2 3.313l.974.974a1.6 1.6 0 0 0-.045.352v6.648c0 .911.74 1.66 1.642 1.66 0 0 5.719.009 6.549 0q.22 0 .479-.027l8.326 8.327ZM7.846 9.627a1.657 1.657 0 0 1-1.642-1.659q0-.206.054-.397l1.994 2.002a1.5 1.5 0 0 1-.406.054"/></svg>

<svg xmlns="http://www.w3.org/2000/svg" viewBox="0 0 24 24"><path d="M12.762 10.196V4.639C12.762 3.728 12.023 2.979 11.12 2.979H5.545L12.762 10.196ZM7.846 3.664C8.143 3.664 8.396 3.917 8.396 4.224 8.396 4.53 8.152 4.774 7.846 4.774 7.539 4.774 7.304 4.53 7.304 4.224 7.304 3.917 7.548 3.664 7.846 3.664ZM15.424 15.356V17.178L15.406 19.352C13.601 19.127 12.194 17.602 12.194 15.744 12.194 14.742 12.609 13.849 13.267 13.191L11.535 11.459C11.364 11.639 11.364 11.91 11.544 12.09L12.347 12.893C11.788 13.579 11.436 14.418 11.346 15.338H10.191C9.939 15.338 9.74 15.536 9.74 15.789 9.74 16.041 9.939 16.24 10.191 16.24H11.346C11.445 17.151 11.806 17.981 12.374 18.658L11.544 19.488C11.364 19.668 11.364 19.948 11.544 20.128 11.635 20.218 11.752 20.263 11.86 20.263S12.095 20.218 12.176 20.128L13.015 19.289C13.691 19.83 14.512 20.182 15.424 20.272V21.481C15.424 21.734 15.622 21.932 15.875 21.932 16.127 21.932 16.326 21.734 16.326 21.481V20.272C17.228 20.182 18.049 19.821 18.716 19.28L19.573 20.137C19.664 20.227 19.781 20.272 19.889 20.272S20.124 20.227 20.205 20.137C20.205 20.137 20.205 20.137 20.205 20.137L15.424 15.356ZM21.549 15.329H20.367C20.286 14.409 19.934 13.579 19.384 12.902L20.205 12.081C20.385 11.901 20.385 11.621 20.205 11.441 20.024 11.26 19.745 11.26 19.564 11.441L18.752 12.253C18.076 11.684 17.246 11.323 16.317 11.224V10.106C16.317 9.853 16.118 9.654 15.866 9.654 15.613 9.654 15.415 9.853 15.415 10.106V11.233C14.954 11.278 14.521 11.387 14.124 11.558L14.828 12.262C15.018 12.207 15.216 12.162 15.424 12.135V12.857L20.042 17.476C20.205 17.088 20.313 16.682 20.358 16.249H21.549C21.802 16.249 22 16.051 22 15.798 22 15.545 21.802 15.329 21.549 15.329ZM21.17 19.993L3.245 2.068 2 3.313 2.974 4.287C2.947 4.404 2.929 4.521 2.929 4.639V11.287C2.929 12.198 3.669 12.947 4.571 12.947 4.571 12.947 10.29 12.956 11.12 12.947 11.265 12.947 11.427 12.938 11.599 12.92L19.925 21.247 21.17 19.993ZM7.846 9.627C6.944 9.627 6.204 8.879 6.204 7.968 6.204 7.832 6.222 7.697 6.258 7.571L8.252 9.573C8.125 9.609 7.99 9.627 7.846 9.627Z" fill="#44739e"/></svg>
